X:1
T:Those that do put their confidence (Ps 125)
T:Richard Allison
T:Source : The Whole Book of Psalms---London---Musican antiquarian Society---1844. First publication : London---Th.Est(e)---1592. Editor :  André Vierendeels (16/09/16).
T:Notes : Original clefs : G2, C2, C3, F3 Original note values have been halved
T:Those that do put their confidence (Ps 125) 
T:©
C:Richard Allison
Z:©
%%score [ 1 2 3 4 ]
L:1/8
Q:1/4=119
M:4/4
K:C
V:1 treble nm="Soprano" snm="S"
V:2 treble nm="Alto" snm="A"
V:3 treble-8 nm="Tenor" snm="T"
V:4 bass nm="Bass" snm="B"
V:1
 G4 A2 B2 | c4 c2 c2- | c2 c2 B4 || c4 c2 c2 | f2 e2 d4 | c4 B4 || B2 d4 ^c2 | d4 g4 | e2 dc B4 || %9
w: Those that do|put their con-|* fi- dence,|up- on the|Lord, our God|on- ly,|and flee to|him for|his de _ fence,|
 c4 c2 c2 | f3 e dc c2- | c2 B2 !fermata!c4 |] %12
w: in all their|need _ and _ mi-|* se- ry.|
V:2
 E4 F2 F2 | G4 G2 A2- | A2 G2 G4 || G4 A2 A2 | A2 G4 G2- | G2 ^F2 G4 || D4 A2 A2- | A2 B4 G2 | %8
w: Those that do|put their con-|* fi- dence,|up- on the|Lord, our God|_ on- ly,|and flee to|_ him for|
 A2 ^F2 G4 || G4 A4 | A3 c BA G2- | GF D2 !fermata!E4 |] %12
w: his de- fence,|in all|their need and _ mi-|* * se- ry.|
V:3
 c4 c2 d2 | e4 e2 f2- | f2 e2 d4 || e4 f2 e2 | d2 c2 B4 | c4 d4 || g4 f2 e2 | d4 B4 | c2 A2 G4 || %9
w: Those that do|put their con-|* fi- dence,|up- on the|Lord, our God|on- ly,|and flee to|him for|his de- fence,|
 e4 f2 e2 | d2 c2 e4 | d4 !fermata!c4 |] %12
w: in all their|need and mi-|se- ry.|
V:4
 C,4 F,2 D,2 | C,4 C,2 F,2- | F,2 C,2 G,4 || C,4 F,2 A,2 | D,2 E,F, G,4 | A,4 G,4 || G,4 A,4 | %7
w: Those that do|put their con-|* fi- dence,|up- on the|Lord, our _ God|on- ly,|and flee|
 ^F,2 G,4 E,2 | C,2 D,2 G,4 || C4 A,3 G, | F,2 F,2 G,4 | G,4 !fermata!C,4 |] %12
w: to him for|his de- fence,|in all their|need and mi-|se- ry.|

